X:083
T:The Miller's Rant
C:J Scott Skinner
Z:Nigel Gatherer
M:4/4
L:1/8
R:Strathspey
K:D
z|A,<DF>D A>DF>D|B,<EG>EB>EG>E|A,<DF>D A>DF>D|G<BC<A D2 D:|
A|A<df>d a>df>d|B>^de>f g>ec>B|A<df>d a>df>d|B<dc<a d2 d>A|
A<df>d a>df>d|B>^de>f g>ec>B|(3agf (3edc (3BAG (3FED|(3CDE (3A,B,C D2 D|]
<end>
<start>
